X: 1
T: the New May Moon
C: George Collingwood/D.Smith
B: Pinewoods Scottish Music Collection [Alternates] (1986)
B: Paddledoo Collection
R: jig
Z: 2006 John Chambers <jc:trillian.mit.edu>
M: 6/8
L: 1/8
K: D
A \
| "D"dcB     AFA |  "G"B2A  "D"AFA | "D"d2d "A7"ede | "D"f2d     def \
| "Em"g2e "D"f2d | "Em"e2d "A7"cBA | "D"dcB     AFA | "G"B2A "A7"A2 :|
|: f \
| "D"aba     fdf |  "D"aba     fdf | "Em"g2e "D"efg | "Em"b3 "A7"a3  \
| "D"afa "A7"geg | "Bm"fdf "A7"cBA |  "G"dcB "D"AFA | "G"B2A "A7"A2 :|
